static/img/kroki/06b36f53440cd518dd9ae2ff980401a0.svg

<?xml version="1.0" encoding="us-ascii" standalone="no"?><svg xmlns="http://www.w3.org/2000/svg" xmlns:xlink="http://www.w3.org/1999/xlink" contentStyleType="text/css" height="374px" preserveAspectRatio="none" style="width:323px;height:374px;" version="1.1" viewBox="0 0 323 374" width="323px" zoomAndPan="magnify"><defs/><g><!--class aws_resource--><g id="elem_aws_resource"><rect codeLine="23" fill="#3D176E" height="39.7891" id="aws_resource" rx="2.5" ry="2.5" style="stroke:#000D19;stroke-width:0.5;" width="155" x="7" y="167.79"/><ellipse cx="22" cy="187.6845" fill="#ADD1B2" rx="11" ry="11" style="stroke:#181818;stroke-width:1.0;"/><path d="M24.9688,193.3252 Q24.3906,193.622 23.75,193.7627 Q23.1094,193.9189 22.4063,193.9189 Q19.9063,193.9189 18.5781,192.2783 Q17.2656,190.622 17.2656,187.497 Q17.2656,184.372 18.5781,182.7158 Q19.9063,181.0595 22.4063,181.0595 Q23.1094,181.0595 23.75,181.2158 Q24.4063,181.372 24.9688,181.6689 L24.9688,184.3877 Q24.3438,183.8095 23.75,183.5439 Q23.1563,183.2627 22.5313,183.2627 Q21.1875,183.2627 20.5,184.3408 Q19.8125,185.4033 19.8125,187.497 Q19.8125,189.5908 20.5,190.6689 Q21.1875,191.7314 22.5313,191.7314 Q23.1563,191.7314 23.75,191.4658 Q24.3438,191.1845 24.9688,190.6064 L24.9688,193.3252 Z " fill="#000000"/><text fill="#D9B8FF" font-family="Helvetica" font-size="17" lengthAdjust="spacing" textLength="113" x="41" y="193.5698">aws_resource</text></g><!--class aws_route53_zone--><g id="elem_aws_route53_zone"><rect codeLine="26" fill="#3D176E" height="39.7891" id="aws_route53_zone" rx="2.5" ry="2.5" style="stroke:#000D19;stroke-width:0.5;" width="199" x="70" y="328.58"/><ellipse cx="85" cy="348.4745" fill="#ADD1B2" rx="11" ry="11" style="stroke:#181818;stroke-width:1.0;"/><path d="M87.9688,354.1152 Q87.3906,354.412 86.75,354.5527 Q86.1094,354.7089 85.4063,354.7089 Q82.9063,354.7089 81.5781,353.0683 Q80.2656,351.412 80.2656,348.287 Q80.2656,345.162 81.5781,343.5058 Q82.9063,341.8495 85.4063,341.8495 Q86.1094,341.8495 86.75,342.0058 Q87.4063,342.162 87.9688,342.4589 L87.9688,345.1777 Q87.3438,344.5995 86.75,344.3339 Q86.1563,344.0527 85.5313,344.0527 Q84.1875,344.0527 83.5,345.1308 Q82.8125,346.1933 82.8125,348.287 Q82.8125,350.3808 83.5,351.4589 Q84.1875,352.5214 85.5313,352.5214 Q86.1563,352.5214 86.75,352.2558 Q87.3438,351.9745 87.9688,351.3964 L87.9688,354.1152 Z " fill="#000000"/><text fill="#D9B8FF" font-family="Helvetica" font-size="17" lengthAdjust="spacing" textLength="157" x="104" y="354.3598">aws_route53_zone</text></g><!--class dns_zone--><g id="elem_dns_zone"><rect codeLine="29" fill="#3D176E" height="39.7891" id="dns_zone" rx="2.5" ry="2.5" style="stroke:#000D19;stroke-width:0.5;" width="119" x="197" y="167.79"/><ellipse cx="212" cy="187.6845" fill="#ADD1B2" rx="11" ry="11" style="stroke:#181818;stroke-width:1.0;"/><path d="M214.9688,193.3252 Q214.3906,193.622 213.75,193.7627 Q213.1094,193.9189 212.4063,193.9189 Q209.9063,193.9189 208.5781,192.2783 Q207.2656,190.622 207.2656,187.497 Q207.2656,184.372 208.5781,182.7158 Q209.9063,181.0595 212.4063,181.0595 Q213.1094,181.0595 213.75,181.2158 Q214.4063,181.372 214.9688,181.6689 L214.9688,184.3877 Q214.3438,183.8095 213.75,183.5439 Q213.1563,183.2627 212.5313,183.2627 Q211.1875,183.2627 210.5,184.3408 Q209.8125,185.4033 209.8125,187.497 Q209.8125,189.5908 210.5,190.6689 Q211.1875,191.7314 212.5313,191.7314 Q213.1563,191.7314 213.75,191.4658 Q214.3438,191.1845 214.9688,190.6064 L214.9688,193.3252 Z " fill="#000000"/><text fill="#D9B8FF" font-family="Helvetica" font-size="17" lengthAdjust="spacing" textLength="77" x="231" y="193.5698">dns_zone</text></g><!--class resource--><g id="elem_resource"><rect codeLine="32" fill="#3D176E" height="39.7891" id="resource" rx="2.5" ry="2.5" style="stroke:#000D19;stroke-width:0.5;" width="113" x="113" y="7"/><ellipse cx="128" cy="26.8945" fill="#ADD1B2" rx="11" ry="11" style="stroke:#181818;stroke-width:1.0;"/><path d="M130.9688,32.5352 Q130.3906,32.832 129.75,32.9727 Q129.1094,33.1289 128.4063,33.1289 Q125.9063,33.1289 124.5781,31.4883 Q123.2656,29.832 123.2656,26.707 Q123.2656,23.582 124.5781,21.9258 Q125.9063,20.2695 128.4063,20.2695 Q129.1094,20.2695 129.75,20.4258 Q130.4063,20.582 130.9688,20.8789 L130.9688,23.5977 Q130.3438,23.0195 129.75,22.7539 Q129.1563,22.4727 128.5313,22.4727 Q127.1875,22.4727 126.5,23.5508 Q125.8125,24.6133 125.8125,26.707 Q125.8125,28.8008 126.5,29.8789 Q127.1875,30.9414 128.5313,30.9414 Q129.1563,30.9414 129.75,30.6758 Q130.3438,30.3945 130.9688,29.8164 L130.9688,32.5352 Z " fill="#000000"/><text fill="#D9B8FF" font-family="Helvetica" font-size="17" lengthAdjust="spacing" textLength="71" x="147" y="32.7798">resource</text></g><!--reverse link resource to aws_resource--><g id="link_resource_aws_resource"><path codeLine="35" d="M150.7541,62.9188 C134.4141,93.4388 111.15,136.9 94.79,167.46 " fill="none" id="resource-backto-aws_resource" style="stroke:#FFAF37;stroke-width:2.0;"/><polygon fill="none" points="159.25,47.05,145.4645,60.0868,156.0437,65.7508,159.25,47.05" style="stroke:#FFAF37;stroke-width:2.0;"/></g><!--reverse link aws_resource to aws_route53_zone--><g id="link_aws_resource_aws_route53_zone"><path codeLine="36" d="M103.2459,223.7088 C119.5859,254.2288 142.85,297.69 159.21,328.25 " fill="none" id="aws_resource-backto-aws_route53_zone" style="stroke:#FFAF37;stroke-width:2.0;"/><polygon fill="none" points="94.75,207.84,97.9563,226.5408,108.5355,220.8768,94.75,207.84" style="stroke:#FFAF37;stroke-width:2.0;"/></g><!--reverse link dns_zone to aws_route53_zone--><g id="link_dns_zone_aws_route53_zone"><path codeLine="37" d="M237.3577,223.6241 C220.6277,254.1441 196.78,297.69 180.03,328.25 " fill="none" id="dns_zone-backto-aws_route53_zone" style="stroke:#FFAF37;stroke-width:2.0;"/><polygon fill="none" points="246.01,207.84,232.0963,220.74,242.6191,226.5082,246.01,207.84" style="stroke:#FFAF37;stroke-width:2.0;"/></g><!--reverse link resource to dns_zone--><g id="link_resource_dns_zone"><path codeLine="38" d="M188.6423,62.8341 C205.3723,93.3541 229.22,136.9 245.97,167.46 " fill="none" id="resource-backto-dns_zone" style="stroke:#FFAF37;stroke-width:2.0;"/><polygon fill="none" points="179.99,47.05,183.3809,65.7182,193.9037,59.95,179.99,47.05" style="stroke:#FFAF37;stroke-width:2.0;"/></g><!--SRC=[XP9HJuCm58NV-okQx9a499EH-399ZBuinlc-57ex6g0bjqMogV_TuHmf8DjZp_bwpxbDSyc1GbNR0wsWIW4DCOLKDKDMqJMYRXDTQgGB8PW8ex7vf9Mz2MnO1VGPoW-mCcDZuZsNMQ7067hdM8yiA_Qe6yNFuoqoPKuMAEjGIScCMLkBCcqiE6LudAw469FZeOkG1z4zJ32D7F0FyNsV1_4OkHbrTU-UsCeZqC1zj8ssCAavYVYbhhRi2AVaPD6BFzlnbN4krPuk7Utjt0aLu43VvephjgC5AuqROomWQ7ke8Pbi1V6AY-XV-6KE9bdtT9IrPeTWT8CPq4z2lbrTdxx2CjmTjHfuN9c9DfpHdnw-FCyRX911ekCxOQHFcF57zoyu-G40]--></g></svg>

<svg xmlns="http://www.w3.org/2000/svg" width="323" height="374" viewBox="0 0 323 374"><rect width="155" height="39.789" x="7" y="167.79" fill="#3D176E" rx="2.5" ry="2.5" style="stroke:#000d19;stroke-width:.5"/><circle cx="22" cy="187.685" r="11" fill="#ADD1B2" style="stroke:#181818;stroke-width:1"/><path d="M24.969 193.325q-.578.297-1.219.438-.64.156-1.344.156-2.5 0-3.828-1.64-1.312-1.657-1.312-4.782t1.312-4.781q1.328-1.656 3.828-1.656.703 0 1.344.156.656.156 1.219.453v2.719q-.625-.578-1.219-.844-.594-.281-1.219-.281-1.343 0-2.031 1.078-.687 1.062-.687 3.156t.687 3.172q.688 1.062 2.031 1.062.625 0 1.219-.265.594-.281 1.219-.86z"/><text x="41" y="193.57" fill="#D9B8FF" font-family="Helvetica" font-size="17" textLength="113">aws_resource</text><rect width="199" height="39.789" x="70" y="328.58" fill="#3D176E" rx="2.5" ry="2.5" style="stroke:#000d19;stroke-width:.5"/><circle cx="85" cy="348.474" r="11" fill="#ADD1B2" style="stroke:#181818;stroke-width:1"/><path d="M87.969 354.115q-.578.297-1.219.438-.64.156-1.344.156-2.5 0-3.828-1.64-1.312-1.657-1.312-4.782t1.312-4.781q1.328-1.656 3.828-1.656.703 0 1.344.156.656.156 1.219.453v2.719q-.625-.579-1.219-.844-.594-.281-1.219-.281-1.344 0-2.031 1.078-.687 1.062-.687 3.156t.687 3.172q.688 1.062 2.031 1.062.625 0 1.219-.265.594-.281 1.219-.86z"/><text x="104" y="354.36" fill="#D9B8FF" font-family="Helvetica" font-size="17" textLength="157">aws_route53_zone</text><rect width="119" height="39.789" x="197" y="167.79" fill="#3D176E" rx="2.5" ry="2.5" style="stroke:#000d19;stroke-width:.5"/><circle cx="212" cy="187.685" r="11" fill="#ADD1B2" style="stroke:#181818;stroke-width:1"/><path d="M214.969 193.325q-.578.297-1.219.438-.64.156-1.344.156-2.5 0-3.828-1.64-1.312-1.657-1.312-4.782t1.312-4.781q1.328-1.656 3.828-1.656.703 0 1.344.156.656.156 1.219.453v2.719q-.625-.578-1.219-.844-.594-.281-1.219-.281-1.344 0-2.031 1.078-.687 1.062-.687 3.156t.687 3.172q.688 1.062 2.031 1.062.625 0 1.219-.265.594-.281 1.219-.86z"/><text x="231" y="193.57" fill="#D9B8FF" font-family="Helvetica" font-size="17" textLength="77">dns_zone</text><rect width="113" height="39.789" x="113" y="7" fill="#3D176E" rx="2.5" ry="2.5" style="stroke:#000d19;stroke-width:.5"/><circle cx="128" cy="26.895" r="11" fill="#ADD1B2" style="stroke:#181818;stroke-width:1"/><path d="M130.969 32.535q-.578.297-1.219.438-.64.156-1.344.156-2.5 0-3.828-1.64-1.312-1.657-1.312-4.782t1.312-4.781q1.328-1.656 3.828-1.656.703 0 1.344.156.656.156 1.219.453v2.719q-.625-.578-1.219-.844-.594-.281-1.219-.281-1.344 0-2.031 1.078-.687 1.062-.687 3.156t.687 3.172q.688 1.062 2.031 1.062.625 0 1.219-.265.594-.281 1.219-.86z"/><text x="147" y="32.78" fill="#D9B8FF" font-family="Helvetica" font-size="17" textLength="71">resource</text><path fill="none" d="M150.754 62.919C134.414 93.439 111.15 136.9 94.79 167.46m64.46-120.41-13.786 13.037 10.58 5.664zm-56.004 176.659c16.34 30.52 39.604 73.981 55.964 104.541M94.75 207.84l3.206 18.7 10.58-5.663z" style="stroke:#ffaf37;stroke-width:2"/><g fill="none"><path d="M237.358 223.624c-16.73 30.52-40.578 74.066-57.328 104.626" style="stroke:#ffaf37;stroke-width:2"/><path d="m246.01 207.84-13.914 12.9 10.523 5.768z" style="stroke:#ffaf37;stroke-width:2"/></g><path fill="none" d="M188.642 62.834c16.73 30.52 40.578 74.066 57.328 104.626M179.99 47.05l3.39 18.668 10.524-5.768z" style="stroke:#ffaf37;stroke-width:2"/></svg>
